modules/hawcons-filled/icons/icon-59-document-bookmark.svg

<?xml version="1.0" encoding="UTF-8" standalone="no"?>
<svg width="32px" height="32px" viewBox="0 0 32 32" version="1.1" xmlns="http://www.w3.org/2000/svg" xmlns:xlink="http://www.w3.org/1999/xlink" xmlns:sketch="http://www.bohemiancoding.com/sketch/ns">
    <!-- Generator: Sketch 3.0.3 (7891) - http://www.bohemiancoding.com/sketch -->
    <title>icon 59 document bookmark</title>
    <desc>Created with Sketch.</desc>
    <defs></defs>
    <g id="Page-1" stroke="none" stroke-width="1" fill="none" fill-rule="evenodd" sketch:type="MSPage">
        <g id="icon-59-document-bookmark" sketch:type="MSArtboardGroup" fill="#929292">
            <path d="M16,3 L19,3 L19,9.00189865 C19,10.1132936 19.8980806,11 21.0059191,11 L26,11 L26,28.0025781 C26,29.1090746 25.1057238,30 24.0025781,30 L8.99742191,30 C7.89092539,30 7,29.1012878 7,27.9926701 L7,5.00732994 C7,3.89833832 7.8992496,3 9.0085302,3 L10,3 L10,15 L13,12 L16,15 L16,3 L16,3 L16,3 Z M11,3 L11,12.5999756 L13,10.5999756 L15,12.5999756 L15,3 L11,3 L11,3 Z M20,3 L20,8.99707067 C20,9.55097324 20.4509752,10 20.990778,10 L26,10 L20,3 L20,3 Z" id="document-bookmark" sketch:type="MSShapeGroup"></path>
        </g>
    </g>
</svg>

<svg width="32" height="32" viewBox="0 0 32 32" xmlns="http://www.w3.org/2000/svg"><path d="M16 3h3v6.002c0 1.111.898 1.998 2.006 1.998H26v17.003A1.995 1.995 0 0 1 24.003 30H8.997A2 2 0 0 1 7 27.993V5.007C7 3.898 7.9 3 9.009 3H10v12l3-3 3 3V3zm-5 0v9.6l2-2 2 2V3h-4zm9 0v5.997c0 .554.451 1.003.99 1.003H26l-6-7z" fill="#929292" fill-rule="evenodd"/></svg>
